X:1
T:Title
%%score [ ( 1 2 ) ( 3 4 ) ] { ( 5 6 ) | ( 7 8 ) }
L:1/8
Q:1/4=120
M:4/4
K:Eb
V:1 treble nm="Midi_74"
V:2 treble 
V:3 bass nm="Midi_74"
V:4 bass 
V:5 treble nm="Org."
V:6 treble 
V:7 bass 
V:8 bass 
V:1
 E8 | F4 (G2 A2) | B8 || B8 | c4 (d2 e2) | f4 A4 |{A} G8 || F8 | G4 (A2 B2) | c8 || c8 | %11
 d4 (e2 f2) |"^William Henry Havergal\n(1793-1870)" e4 d4 | e8 |] %14
V:2
 E8 | D4 (E2 F2) | G8 || D8 | E4 (F2 G2) | A4 D4 | E8 || (C6 F2) | =E4 (F2 G2) | A8 || E8 | %11
 F4 (E2 A2) | (G2 F2) (B2 A2) | G8 |] %14
V:3
 G,8 | B,4 (B,2 A,2) | G,8 || B,8 | =A,4 (_A,2 G,2) | F,4 (F,2 B,2) | B,8 || A,8 | C4 (C2 B,2) | %9
 A,8 || C8 | B,4 (B,2 C2) | B,4 F4 | E8 |] %14
V:4
 E,8 | E,4 E,4 | E,8 || B,,8 | B,,4 B,,4 | B,,4 B,,4 | E,8 || F,8 | F,4 F,4 | F,8 || A,8 | %11
 A,4 (G,2 A,2) | B,4 B,4 | E,8 |] %14
V:5
 E8 | F4 G2 A2 | B8 || B8 | c4 d2 e2 | f4 A4 |{A} G8 || F8 | G4 A2 B2 | c8 || c8 | d4 e2 f2 | %12
 [Be]4 [Fd]4 | [Ee]8 |] %14
V:6
 E8 | D4 E2 F2 | G8 || D8 | E4 F2 G2 | A4 [DF]4 | E8 || C8 | =E4 F2 G2 | A8 || E8 | %11
 F4 [EB]2 [Ac]2 | G2 F2 B2 A2 | G8 |] %14
V:7
 [G,B,]8 | B,4 B,2 A,2 | G,8 || B,8 | =A,4 _A,2 G,2 | F,4 B,4 | B,8 || A,8 | C4 C2 B,2 | A,8 || %10
 x8 | x8 | x8 | x8 |] %14
V:8
 E,8 | E,4 E,4 | E,8 || B,,8 | B,,4 B,,4 | B,,4 B,,4 | E,8 || F,8 | F,4 F,4 | F,8 || A,8 | %11
 A,4 G,2 A,2 | B,4 B,4 | E,8 |] %14

